public/topics/9.svg

<svg width="250" height="250" viewBox="0 0 250 250" fill="none" xmlns="http://www.w3.org/2000/svg">
<rect width="250" height="250" rx="30" fill="#996666"/>
<path d="M115 175.4C119.533 173.933 123.867 171.267 128 167.4C132.267 163.533 135.8 159.2 138.6 154.4C141.533 149.467 143.267 144.733 143.8 140.2C140.067 142.867 136.267 144.733 132.4 145.8C128.533 146.867 124.067 147.4 119 147.4C112.2 147.4 106.6 146.267 102.2 144C97.8 141.6 93.1333 138.2 88.2 133.8C87.4 133 86.4 131.267 85.2 128.6C84 125.8 82.9333 122.4 82 118.4C81.0667 114.267 80.6 110.067 80.6 105.8C80.6 101.933 81.8 97.8667 84.2 93.6C86.6 89.3333 89.6 85.5333 93.2 82.2C96.9333 78.7333 100.467 76.2667 103.8 74.8C106.867 73.4667 110.4 72.3333 114.4 71.4C118.533 70.3333 122 69.8 124.8 69.8C134.267 69.8 142.2 72 148.6 76.4C155.133 80.8 159.933 86.6667 163 94C166.067 101.333 167.6 109.467 167.6 118.4C167.6 133.733 164.2 147.733 157.4 160.4C150.6 172.933 142 182.667 131.6 189.6C129.867 190.8 126.867 192.133 122.6 193.6C118.467 194.933 114.667 195.6 111.2 195.6C108.533 195.6 106.2 194.4 104.2 192C102.2 189.6 101.2 186.867 101.2 183.8C101.2 181.667 101.933 180.2 103.4 179.4C104.867 178.467 107.267 177.533 110.6 176.6L115 175.4ZM124.8 86.8C122.667 86.8 120.133 87.2667 117.2 88.2C114.4 89 112 90 110 91.2C107.733 92.5333 105.533 94.6 103.4 97.4C101.4 100.067 100.4 102.133 100.4 103.6C100.4 121.067 107.467 129.8 121.6 129.8C124.8 129.8 128.333 129.133 132.2 127.8C136.2 126.333 139.533 124.333 142.2 121.8C144.867 119.267 146.2 116.4 146.2 113.2C146.2 104.4 144.333 97.8 140.6 93.4C137 89 131.733 86.8 124.8 86.8Z" fill="white"/>
</svg>

<svg xmlns="http://www.w3.org/2000/svg" width="250" height="250" fill="none" viewBox="0 0 250 250"><rect width="250" height="250" fill="#966" rx="30"/><path fill="#fff" d="M115 175.4q6.8-2.2 13-8 6.4-5.8 10.6-13 4.4-7.4 5.2-14.2-5.6 4-11.4 5.6t-13.4 1.6q-10.2 0-16.8-3.4-6.6-3.6-14-10.2-1.2-1.2-3-5.2-1.8-4.2-3.2-10.2a57 57 0 0 1-1.4-12.6q0-5.8 3.6-12.2t9-11.4q5.6-5.2 10.6-7.4 4.6-2 10.6-3.4 6.2-1.6 10.4-1.6 14.2 0 23.8 6.6Q158.4 83 163 94t4.6 24.4q0 23-10.2 42-10.2 18.8-25.8 29.2-2.6 1.8-9 4-6.2 2-11.4 2-4 0-7-3.6t-3-8.2q0-3.2 2.2-4.4 2.2-1.4 7.2-2.8zm9.8-88.6q-3.2 0-7.6 1.4-4.2 1.2-7.2 3-3.4 2-6.6 6.2-3 4-3 6.2 0 26.2 21.2 26.2 4.8 0 10.6-2 6-2.2 10-6t4-8.6q0-13.2-5.6-19.8-5.4-6.6-15.8-6.6"/></svg>
